Suru++-Ubuntu/status/24/simplescreenrecorder-recording.svg

<svg width="24" height="24" version="1" xmlns="http://www.w3.org/2000/svg">
 <defs>
  <style type="text/css">.ColorScheme-Text { color:#5c616c; } .ColorScheme-Highlight { color:#5294e2; } .ColorScheme-ButtonBackground { color:#d3dae3; }</style>
 </defs>
 <g transform="matrix(1.125,0,0,1.125,-438.0004,-199.125)" style="fill:#ffffff">
  <path transform="matrix(.88888889 0 0 .88888889 389.33369 177)" d="m6.375 6.75c-0.7398113 0-1.32682 0.0666544-1.8203125 0.2519531-0.4934925 0.1852538-0.8894406 0.5199432-1.1230469 0.9433594-0.467235 0.8468438-0.4152494 1.8833636-0.4316406 3.2988285v0.0039 2.253906 0.0039c0.016313 1.415464-0.035651 2.451983 0.4316406 3.298829 0.2336175 0.423416 0.6295544 0.758105 1.1230469 0.943359 0.4935038 0.185075 1.0805012 0.251965 1.8203125 0.251965h6.75c0.739811 0 1.324856-0.06665 1.818359-0.251953 0.493493-0.185243 0.88943-0.519943 1.123047-0.943359 0.450045-0.815649 0.419852-1.815658 0.431641-3.152344 1.747798 0.995114 3.333228 1.860843 4.501953 2.414062v-7.3828122c-1.145377 0.5426474-2.735029 1.4131052-4.501953 2.4179682-0.011866-1.3387538 0.018896-2.3397701-0.431641-3.1562495-0.233617-0.4234163-0.629554-0.7581169-1.123047-0.9433594-0.493503-0.1850512-1.078548-0.2519531-1.818359-0.2519531zm0 1.125h6.75c0.666439 0 1.131441 0.069933 1.423828 0.1796875 0.292399 0.1098 0.417411 0.2272575 0.53125 0.4335937 0.227149 0.4117052 0.278373 1.3458725 0.294922 2.7617188v0.484375 1.285156 0.47461c-0.01642 1.421471-0.0672 2.352963-0.294922 2.765625-0.11385 0.206336-0.23884 0.325791-0.53125 0.435546-0.292399 0.109769-0.757389 0.179688-1.423828 0.179688h-6.75c-0.6664387 0-1.1314406-0.06993-1.4238281-0.179688-0.2923988-0.1098-0.4174113-0.22921-0.53125-0.435546-0.2271488-0.411694-0.2783732-1.343931-0.2949219-2.759766v-0.005859-2.238282-0.005859c0.0165375-1.4158463 0.0677619-2.3500136 0.2949219-2.7617188 0.1138387-0.2063362 0.2388512-0.3238387 0.53125-0.4335937 0.2923875-0.1097662 0.7573894-0.1796875 1.4238281-0.1796875zm0.6249987 1.125v7l6.0000013-3.462891z" style="fill:#ffffff"/>
 </g>
</svg>

<?xml version="1.0" encoding="UTF-8" standalone="no"?>
<svg
   xmlns:dc="http://purl.org/dc/elements/1.1/"
   xmlns:cc="http://creativecommons.org/ns#"
   xmlns:rdf="http://www.w3.org/1999/02/22-rdf-syntax-ns#"
   xmlns:svg="http://www.w3.org/2000/svg"
   xmlns="http://www.w3.org/2000/svg"
   xmlns:sodipodi="http://sodipodi.sourceforge.net/DTD/sodipodi-0.dtd"
   xmlns:inkscape="http://www.inkscape.org/namespaces/inkscape"
   height="24"
   width="24"
   version="1"
   id="svg2"
   sodipodi:docname="simplescreenrecorder-recording.svg"
   inkscape:version="0.92.3 (2405546, 2018-03-11)">
  <metadata
     id="metadata8">
    <rdf:RDF>
      <cc:Work
         rdf:about="">
        <dc:format>image/svg+xml</dc:format>
        <dc:type
           rdf:resource="http://purl.org/dc/dcmitype/StillImage" />
        <dc:title />
      </cc:Work>
    </rdf:RDF>
  </metadata>
  <sodipodi:namedview
     pagecolor="#ffffff"
     bordercolor="#666666"
     borderopacity="1"
     objecttolerance="10"
     gridtolerance="10"
     guidetolerance="10"
     inkscape:pageopacity="0"
     inkscape:pageshadow="2"
     inkscape:window-width="1920"
     inkscape:window-height="1009"
     id="namedview6"
     showgrid="true"
     inkscape:zoom="34.541667"
     inkscape:cx="10.239714"
     inkscape:cy="12"
     inkscape:window-x="0"
     inkscape:window-y="34"
     inkscape:window-maximized="1"
     inkscape:current-layer="g6217">
    <inkscape:grid
       type="xygrid"
       id="grid815" />
  </sodipodi:namedview>
  <defs
     id="defs8">
    <style
       type="text/css"
       id="current-color-scheme">
   .ColorScheme-Text { color:#5c616c; } .ColorScheme-Highlight { color:#5294e2; } .ColorScheme-ButtonBackground { color:#d3dae3; }
  </style>
  </defs>
  <g
     id="g6217"
     transform="matrix(1.125,0,0,1.125,-438.0004,-199.125)"
     style="fill:#ffffff">
    <path
       style="color:#000000;font-style:normal;font-variant:normal;font-weight:normal;font-stretch:normal;font-size:medium;line-height:normal;font-family:sans-serif;font-variant-ligatures:normal;font-variant-position:normal;font-variant-caps:normal;font-variant-numeric:normal;font-variant-alternates:normal;font-feature-settings:normal;text-indent:0;text-align:start;text-decoration:none;text-decoration-line:none;text-decoration-style:solid;text-decoration-color:#000000;letter-spacing:normal;word-spacing:normal;text-transform:none;writing-mode:lr-tb;direction:ltr;text-orientation:mixed;dominant-baseline:auto;baseline-shift:baseline;text-anchor:start;white-space:normal;shape-padding:0;clip-rule:nonzero;display:inline;overflow:visible;visibility:visible;opacity:1;isolation:auto;mix-blend-mode:normal;color-interpolation:sRGB;color-interpolation-filters:linearRGB;solid-color:#000000;solid-opacity:1;vector-effect:none;fill:#ffffff;fill-opacity:1;fill-rule:nonzero;stroke:none;stroke-width:1.12500012;stroke-linecap:butt;stroke-linejoin:miter;stroke-miterlimit:4;stroke-dasharray:none;stroke-dashoffset:0;stroke-opacity:1;marker:none;color-rendering:auto;image-rendering:auto;shape-rendering:auto;text-rendering:auto;enable-background:accumulate"
       d="M 6.375,6.75 C 5.6351887,6.75 5.04818,6.8166544 4.5546875,7.0019531 4.061195,7.1872069 3.6652469,7.5218963 3.4316406,7.9453125 2.9644056,8.7921563 3.0163912,9.8286761 3,11.244141 v 0.0039 2.253906 0.0039 c 0.016313,1.415464 -0.035651,2.451983 0.4316406,3.298829 0.2336175,0.423416 0.6295544,0.758105 1.1230469,0.943359 C 5.0481913,17.93311 5.6351887,18 6.375,18 h 6.75 c 0.739811,0 1.324856,-0.06665 1.818359,-0.251953 0.493493,-0.185243 0.88943,-0.519943 1.123047,-0.943359 0.450045,-0.815649 0.419852,-1.815658 0.431641,-3.152344 1.747798,0.995114 3.333228,1.860843 4.501953,2.414062 V 8.6835938 C 19.854623,9.2262412 18.264971,10.096699 16.498047,11.101562 16.486181,9.7628082 16.516943,8.7617919 16.066406,7.9453125 15.832789,7.5218962 15.436852,7.1871956 14.943359,7.0019531 14.449856,6.8169019 13.864811,6.75 13.125,6.75 Z m 0,1.125 h 6.75 c 0.666439,0 1.131441,0.069933 1.423828,0.1796875 0.292399,0.1098 0.417411,0.2272575 0.53125,0.4335937 C 15.307227,8.8999864 15.358451,9.8341537 15.375,11.25 v 0.484375 1.285156 0.47461 c -0.01642,1.421471 -0.0672,2.352963 -0.294922,2.765625 -0.11385,0.206336 -0.23884,0.325791 -0.53125,0.435546 C 14.256429,16.805081 13.791439,16.875 13.125,16.875 h -6.75 c -0.6664387,0 -1.1314406,-0.06993 -1.4238281,-0.179688 -0.2923988,-0.1098 -0.4174113,-0.22921 -0.53125,-0.435546 C 4.1927731,15.848072 4.1415487,14.915835 4.125,13.5 V 13.494141 11.255859 11.25 C 4.1415375,9.8341537 4.1927619,8.8999864 4.4199219,8.4882812 4.5337606,8.281945 4.6587731,8.1644425 4.9511719,8.0546875 5.2435594,7.9449213 5.7085613,7.875 6.375,7.875 Z M 6.9999987,9 v 7 L 13,12.537109 Z"
       transform="matrix(0.88888889,0,0,0.88888889,389.33369,177)"
       id="path8711"
       inkscape:connector-curvature="0"
       sodipodi:nodetypes="sccccccccssccccccccssssccccccccssccccccccscccc" />
  </g>
</svg>
